src/assets/ArrowNavBlue.svg

<svg width="32" height="32" viewBox="0 0 32 32" fill="none" xmlns="http://www.w3.org/2000/svg">
<path fill-rule="evenodd" clip-rule="evenodd" d="M32 16C32 7.16349 24.8365 2.96172e-07 16 1.90798e-07C7.16345 8.54233e-08 2.96172e-07 7.16349 1.90798e-07 16C8.54233e-08 24.8366 7.16345 32 16 32C24.8365 32 32 24.8366 32 16ZM5.81818 16C5.81818 15.1967 6.46941 14.5455 7.27273 14.5455L21.2156 14.5455L16.426 9.75578C15.858 9.18778 15.858 8.26676 16.426 7.69876C16.994 7.13076 17.9151 7.13076 18.4831 7.69876L25.7558 14.9715C26.3238 15.5395 26.3238 16.4605 25.7558 17.0285L18.4831 24.3012C17.9151 24.8693 16.994 24.8693 16.426 24.3013C15.858 23.7332 15.858 22.8122 16.426 22.2442L21.2156 17.4545L7.27273 17.4545C6.46941 17.4545 5.81818 16.8033 5.81818 16Z" fill="#024EC9"/>
</svg>

<svg width="32" height="32" fill="none" xmlns="http://www.w3.org/2000/svg"><path fill-rule="evenodd" clip-rule="evenodd" d="M32 16c0-8.837-7.163-16-16-16S0 7.163 0 16s7.163 16 16 16 16-7.163 16-16zM5.818 16c0-.803.651-1.454 1.455-1.454h13.943l-4.79-4.79a1.455 1.455 0 012.057-2.057l7.273 7.273a1.455 1.455 0 010 2.057L18.483 24.3a1.455 1.455 0 11-2.057-2.057l4.79-4.79H7.273A1.455 1.455 0 015.818 16z" fill="#024EC9"/></svg>
